X: 1
T: Fahey's
M: 4/4
L: 1/8
R: reel
K: Cmaj
G,CEG c3 A|_BABF D~_B,3|G,CEG c=Bcd|dccB GcBd|
~c3 G EGcA|_BABF D~_B,3|G,CEG c=BGF|DEB,D C2 EG||
c2 Ac BAGB|A~F3 G2 AB|c3 A Bcdf|ecdB Gc (3Bcd|
cecA _BdBd|A~F3 Gcdf|ecd=B cBGA|_B2 cA BGFD||
